!!!OTL: ES LEBEN DIE ALTEN DIE WEIBER DER WEIN
!!!ARE: Europa, Mitteleuropa, Deutschland
!!!SCT: B0310
!!!YEM: Copyright 1995, estate of Helmut Schaffrath.
**kern
*ICvox
*Ivox
*M3/4
*k[b-e-]
*B-:
{4f
=1
4b-
4b-
4b-
=2
4dd
4b-}
{4b-
=3
4dd
4dd
4dd
=4
2ff}
{4dd
=5
8ff
8ee-
4ee-
4cc
=6
8ee-
8dd
4dd}
{4b-
=7
8a
8b-
8cc
8b-
8a
8g
=8
2f}
{4dd
=9
4cc
4cc
4dd
=10
4cc
4cc}
{4dd
=11
4cc
8ee-
8dd
8ff
8dd
=12
2cc}
{4ff
=13
8ff
8ee-
4dd
4dd
=14
8dd
8cc
4b-}
{4b-
=15
4cc
8cc
8b-
8cc
8dd
=16
2b-}
==
!!!AGN: Geselligkeits - Lied, Freude
!!!ONB: ESAC (Essen Associative Code) Database: BOEHME
!!!AMT: simple triple
!!!AIN: vox
!!!EED: Helmut Schaffrath
!!!EEV: 1.0
*-
